frontend/src/assets/icons/pencil.svg

<?xml version="1.0" encoding="utf-8"?><!-- Uploaded to: SVG Repo, www.svgrepo.com, Generator: SVG Repo Mixer Tools -->
<svg width="800px" height="800px" viewBox="0 0 24 24" fill="none" xmlns="http://www.w3.org/2000/svg">
<path fill-rule="evenodd" clip-rule="evenodd" d="M20.8477 1.87868C19.6761 0.707109 17.7766 0.707105 16.605 1.87868L2.44744 16.0363C2.02864 16.4551 1.74317 16.9885 1.62702 17.5692L1.03995 20.5046C0.760062 21.904 1.9939 23.1379 3.39334 22.858L6.32868 22.2709C6.90945 22.1548 7.44285 21.8693 7.86165 21.4505L22.0192 7.29289C23.1908 6.12132 23.1908 4.22183 22.0192 3.05025L20.8477 1.87868ZM18.0192 3.29289C18.4098 2.90237 19.0429 2.90237 19.4335 3.29289L20.605 4.46447C20.9956 4.85499 20.9956 5.48815 20.605 5.87868L17.9334 8.55027L15.3477 5.96448L18.0192 3.29289ZM13.9334 7.3787L3.86165 17.4505C3.72205 17.5901 3.6269 17.7679 3.58818 17.9615L3.00111 20.8968L5.93645 20.3097C6.13004 20.271 6.30784 20.1759 6.44744 20.0363L16.5192 9.96448L13.9334 7.3787Z" fill="#0F0F0F"/>
</svg>

<svg width="800" height="800" viewBox="0 0 24 24" fill="none" xmlns="http://www.w3.org/2000/svg"><path fill-rule="evenodd" clip-rule="evenodd" d="M20.848 1.879a3 3 0 0 0-4.243 0L2.447 16.036a3 3 0 0 0-.82 1.533l-.587 2.936a2 2 0 0 0 2.353 2.353l2.936-.587a3 3 0 0 0 1.533-.82L22.019 7.293a3 3 0 0 0 0-4.243L20.848 1.88zm-2.829 1.414a1 1 0 0 1 1.415 0l1.171 1.171a1 1 0 0 1 0 1.415L17.933 8.55l-2.585-2.586 2.671-2.671zm-4.086 4.086L3.862 17.45a1 1 0 0 0-.274.51l-.587 2.936 2.935-.587a1 1 0 0 0 .511-.274L16.52 9.964 13.933 7.38z" fill="#0F0F0F"/></svg>
